Pods/ProtonCore-UIFoundations/libraries/UIFoundations/Sources/Assets.xcassets/Images/IconSet/ic-clock-paper-plane.imageset/ic-clock-paper-plane.svg

<svg width="24" height="24" viewBox="0 0 24 24" fill="none" xmlns="http://www.w3.org/2000/svg">
<path fill-rule="evenodd" clip-rule="evenodd" d="M10.5 1.5C5.52944 1.5 1.5 5.52944 1.5 10.5C1.5 15.4706 5.52944 19.5 10.5 19.5C10.9142 19.5 11.25 19.8358 11.25 20.25C11.25 20.6642 10.9142 21 10.5 21C4.70101 21 0 16.299 0 10.5C0 4.70101 4.70101 0 10.5 0C16.299 0 21 4.70101 21 10.5C21 11.6259 20.8225 12.7119 20.4934 13.7306C20.3661 14.1247 19.9434 14.341 19.5492 14.2137C19.155 14.0864 18.9387 13.6636 19.0661 13.2694C19.3476 12.3979 19.5 11.4675 19.5 10.5C19.5 5.52944 15.4706 1.5 10.5 1.5ZM14.9802 14.0726L23.6256 18.3945C24.1248 18.6441 24.1248 19.3564 23.6256 19.606L14.9802 23.9279C14.5299 24.153 14 23.8256 14 23.3222V20.1103L17.6725 19.2695C17.9938 19.2338 17.9938 18.7667 17.6725 18.731L14 17.8885V14.6783C14 14.1749 14.5299 13.8475 14.9802 14.0726ZM11.25 5.25C11.25 4.83579 10.9142 4.5 10.5 4.5C10.0858 4.5 9.75 4.83579 9.75 5.25V10.5C9.75 10.6989 9.82902 10.8897 9.96967 11.0303L12.2197 13.2803C12.5126 13.5732 12.9874 13.5732 13.2803 13.2803C13.5732 12.9874 13.5732 12.5126 13.2803 12.2197L11.25 10.1893V5.25Z" fill="#0C0C14"/>
</svg>

<svg xmlns="http://www.w3.org/2000/svg" width="24" height="24" viewBox="0 0 24 24">
  <g class="ic-clock-paper-plane">
    <path fill-rule="evenodd" d="M10.5 1.5a9 9 0 0 0 0 18 .75.75 0 0 1 0 1.5C4.701 21 0 16.299 0 10.5S4.701 0 10.5 0 21 4.701 21 10.5c0 1.126-.177 2.212-.507 3.23a.75.75 0 1 1-1.427-.46 8.994 8.994 0 0 0 .434-2.77 9 9 0 0 0-9-9Zm4.48 12.573 8.646 4.322a.677.677 0 0 1 0 1.211l-8.646 4.322a.677.677 0 0 1-.98-.606V20.11l3.672-.84c.322-.036.322-.503 0-.539L14 17.888v-3.21c0-.503.53-.83.98-.605ZM11.25 5.25a.75.75 0 0 0-1.5 0v5.25c0 .199.079.39.22.53l2.25 2.25a.75.75 0 1 0 1.06-1.06l-2.03-2.03V5.25Z" class="Icon"/>
  </g>
</svg>
